ui/StatusQ/src/assets/img/icons/check-2.svg

<svg fill="none" height="20" viewBox="0 0 20 20" width="20" xmlns="http://www.w3.org/2000/svg"><path clip-rule="evenodd" d="m19.416.376042c.3447.229764.4378.695418.208 1.040058l-11.99996 18c-.12464.187-.32654.3082-.55014.3303-.2236.0222-.44535-.0571-.60423-.216l-6-6c-.292893-.2929-.292893-.7678 0-1.0606.292893-.2929.76777-.2929 1.06066 0l5.3531 5.3531 11.49257-17.238845c.2297-.344647.6954-.437777 1.04-.208013z" fill="#4ebc60" fill-rule="evenodd"/></svg>

<svg width="20" height="20" viewBox="0 0 20 20" fill="none" xmlns="http://www.w3.org/2000/svg">
<path fill-rule="evenodd" clip-rule="evenodd" d="M19.416 0.376042C19.7607 0.605806 19.8538 1.07146 19.624 1.4161L7.62404 19.4161C7.4994 19.6031 7.2975 19.7243 7.0739 19.7464C6.8503 19.7686 6.62855 19.6893 6.46967 19.5304L0.46967 13.5304C0.176777 13.2375 0.176777 12.7626 0.46967 12.4698C0.762563 12.1769 1.23744 12.1769 1.53033 12.4698L6.88343 17.8229L18.376 0.584055C18.6057 0.239408 19.0714 0.146278 19.416 0.376042Z" fill="#4EBC60"/>
</svg>
